X: 1
T: The Lochaber Badger
R: reel
M: 4/4
L: 1/8
Z: Contributed 2016-03-08 10:22:34 by Kristina mail@kristinakuenzel.de
K: Gmin

|:d2 cB cB G2|G2 FG BFGB|d2 cB cB G2|GFBF G2 G2|
d2 cB cB G2|G2 FG BFGB|d2 cB cB G2|GFBF G4||
|:G2 FG BG c2|c2 Bc df d2|d2 cB cB G2|GFBF G2 G2|
G2 FG BG c2|c2 Bc df d2|d2 cB cB G2|GFBF G4||
